X: 1
T: Darby Gallagher's
R: jig
M: 6/8
L: 1/8
K: Amix
cBA ecA|fed cBA|def gfg|~B3 Bed|
cBA ecA|fed cBA|c2e dBG|1 ABA Aed:|2 ABA Afg||
|:agf gfe|fed cBA|def gfg|~B3 Bfg|
agf gfe|fed cBA|c2e dBG|1 ABA Afg:|2 ABA Aed||


Tune 810	Setting 26492

